X: 314
T:Eel in the Sink, the
T:The Hills of Kesh
M:C
L:1/8
Z:Lesl
K:Amix
|:e2AB cdeB|dzBD GABd|e2AB cdea|{ba}gedB BAA2:|
|:a~a2b aged|cdef gzef|a~a2b agef|gedB BAA2|
a~a2b aged|cdef gzfg|afge fdef|1 gedB BAA2:|2 gedB BAGE|A8||
<end>
<start>
